icons/phone.svg

<?xml version="1.0" encoding="UTF-8"?>
<svg width="32px" height="32px" viewBox="0 0 32 32" version="1.1" xmlns="http://www.w3.org/2000/svg" xmlns:xlink="http://www.w3.org/1999/xlink">
    <g id="phone" stroke="none" stroke-width="1" fill="none" fill-rule="evenodd">
        <g id="Group-7-Copy-3" transform="translate(1.000000, 1.000000)" stroke="#019A78" stroke-width="1.5">
            <path d="M22.40216,19.5677608 L19.8351884,24.6090262 C19.5945362,24.5632801 19.3866001,24.5128125 19.2151547,24.4603933 C17.5889079,23.9631708 13.3389702,21.4843174 10.4581351,16.8656083 C8.74652163,14.1214578 7.51614297,10.6294244 7.70701532,6.34270534 L13.1895935,5.22029235 L14.8224378,11.368644 C14.0809457,12.1925921 13.4639758,12.4049897 12.8616436,12.5975397 C13.2766631,14.5545799 14.2111221,15.9915367 15.2121945,17.1808275 L17.0427974,15.8670873 L22.40216,19.5677608 Z" id="Phone-Icon-Copy"></path>
            <circle id="Oval" cx="15" cy="15" r="15"></circle>
        </g>
    </g>
</svg>

<svg width="32" height="32" xmlns="http://www.w3.org/2000/svg"><g transform="translate(1 1)" stroke="#019A78" stroke-width="1.5" fill="none" fill-rule="evenodd"><path d="M22.402 19.568l-2.567 5.041a5.959 5.959 0 01-.62-.149c-1.626-.497-5.876-2.976-8.757-7.594-1.711-2.745-2.942-6.237-2.751-10.523L13.19 5.22l1.632 6.149c-.741.824-1.358 1.036-1.96 1.229.415 1.957 1.35 3.394 2.35 4.583l1.83-1.314 5.36 3.7z"/><circle cx="15" cy="15" r="15"/></g></svg>
